-----BEGIN PGP PRIVATE KEY BLOCK-----

xcTGBGphXkwBDAC97KDnvVCNKWqW6sZlhqijEWVRB71JMM64vHBjD8Im4Mnh
Vs+hJk+85zFyBF/X9Jt8QMcNKLzR4+9BY6/RJbZON5QTNNHaTCcD9baF5efC
f8rOBGvdkrLlI19elSNeI5G3pud08//5rrvvRruPTC7QTwMwFsqKat6FR+F0
QPv1bU1CTmg30kZwn5uP9T4gDlDVs255nV1z278wB0LvQUdW8yNwDXRbMWnJ
zT3m2XSfZ1klWzOm2NdTX61vqvF8QzJ2bhxjG7cwK6YJ5KWJMLOvCuDM/AIX
Y7/VGZWSEigvxDFjLgahqC/w9IikorYi/+N/LwrsCidcRwYisCuIwueJYjPZ
0lCrWyThEPaWGrisPpybiv1mfzofpJLlojMW6838HwsQvTRFUkTsJ4Tq8LJS
mLCArxowyyInQxU4zxUNDZGSJkcUDnQhFTIwvAC4ytjQA09DEC8poBKY+Oo9
yFKYIU4UNGzRfem8tG7dqWrbLO9a/XaWdhOJdlqXhHbfq30AEQEAAf4JAwjM
RIaPt1uxxuB0Dzhd5qI5BQ0aikAXPZIOII7BcbMldsfGLev0IFk2FhA0Qe7p
ctAjq1SooTcYOHrRQ9Bmp2QmbZg+AShWR4a/+91KrBhyXOUFDpUfDf70tm7v
uZ5U/+k5QLSjqYTPQCWB79X6ybWOkM/9grj3LCM9YJ4XKlPwQZuOhWF+HGU3
DXaYlxKKFMy8AoO5XPM8wsNipAc9vTeSeM0ONov7HwGLAgQJwm6z1IPR8IX6
08gL64/z9G9lWnprsL8XoKXGpq4it61XhNDO2xYhXHe/X+YDT67hJOkkJYQI
z++Gca7ZipyM/1miEhNGSStmK7f34OBdyhcBD4MCwyNscaGypRM9GezxttCH
fiDQvamihj1zO4aHRMifUkrRXhpAvXW5Pmou0HUhZ/990osJfu+L2hREdF3P
tmnKrHdz8vkzhQUsY5Q/tkGcybSRs64y9C3DJZ+HG0qZdQ/++zK9FY9skiTG
PgQwv5+e0gsZOme8Su4KmpeMmweCJWsHhEat5As1AQy1S1AJnHOPeK93JKr1
LI8P05o2LXFcePWz7zSnYc9BYTjm9mdjRoVIjwRw72ruD9tQnHT+CgOzABsI
3Hy82lfnU+koS2c5PpUFMbLJzGUe7G9iaOGMnUW0tax6xh+ETKtQF6eqUJn4
bGZGli1TWP3xDuByTjJOu0akIXzU2a4IcABCQG3KOnZhJliLRv75rzU18B0F
2yn7drq5kuN63mTnXwbV4yVQ2xfSfTk3eQZUP0RNOcUwaO2O9IoGd/zll9Hd
NDfLIioK7+9xf4aBiT1Q6ifp3iKURcu41ayNoEONyPN8IoeBdfyn86TK8drR
FqLgpXx1OsuFg8hlesY86t8Fv4G7vpWK51lnCoRVDa8cZzk3pW9cuRz0BgVn
dts2nxTlG5Y0XfhqI7yigAxh0Uuy009Op5ah2DC/B6NJGuja1zXVY5XF5ilF
kkp6nCcKnzRuwpuiVR+X2xdRZwazxo2eZ/YfcLCkSb6w5Bn3RyRAEU8/K9cF
DW9phYAtR7GdqJPCptR+ay0zC97N4xWRTkdpYpX8iDk8Eh9iYeSRcm+QPxof
2Q3aOvbKZ1nduFbl0NfCMogPtYmZ6MKVnR/gmNc496XimEZ4Tx6HXk0zMU38
51uoV/aV27C1ac5ZjvSNlj+177OCsHjgXsP2EEaaU7Pgpsfelhy2DVofB+Zm
pwzg0IiAUK8DpcCeFkwcqI5k94VaMUcAsccs/8y8sFv3JfzX/Ee5JP1AoaDN
PzTFIxamqI12uSULR7abmCTE3o3f3KNql/LKAke2tYpv+A7H9gqLny7Jf5wH
BwOmgefesdJMa5fsz0ICTbOuGaijxs0vSlBhc3Nib2x0IERlbW8gTWV0YWRh
dGEgPG1ldGFkYXRhQHBhc3Nib2x0LmNvbT7CwVEEEwEKAIUFgmphXkwDCwkH
CRCHKF8tEcCsSEUUAAAAAAAcACBzYWx0QG5vdGF0aW9ucy5vcGVucGdwanMu
b3JnPwjyeA5v6lWAkPfO1UVrjB7ZFwAPVYdWOP295Tot7jsFFQoIDgwEFgAC
AQIZAQKbAwIeARYhBJ0WIT0n3uj21FHbWocoXy0RwKxIAAC3jgv/Tn2vAoF1
EuGg3qIK94AwUQX6HDdGSjugbbrSGyTkne7mLKbdTlYbb/OkzUvW6KuBSS37
SvoIzyD+l+9vWRYjtn9p86USrbtdVdsK9bElS2Hwm320E6wHyTlV0bAcQ1Fj
W8wDgudfVKEnsIdgQzViiMO+SiwgLoIkxW06n3YCUFN6982t3jZuB5FIIKgn
7LHqgjFttOezoTaIrpZArOGC4RNSYtprTw86Wk9mNXJwr7vz+rDdVLCy64jS
Woamasub09m2WQxBvW+LLumtM85tNAxEYDrPfCZR5LKxAJz6QPyyTTA0iB3S
xr6rJ6jNRJCSuEi4lFuZEM5TfC9cGU/C625OJUKeyUvBAAdMf0YwTeGRe4nY
Qj+LV0qRoDsnhbCfYh+ykFDdb7kGRMh0cZzO6KscYLjrXj7xMuuzUK5eMaB5
whbAGjXqIN+sVQYurNzVUi0Iq4ssIwpYPCfY7dZleAXWtolxV7tPhrCP2GGr
CxQDCGPc/B6ma4RPTk+cWfR6x8TGBGphXkwBDADheqz16/30FHTPwR8CA68n
L/HPYDWXRcSs0EWiN4pV9jgMbf6CN6ro2GDsyWvtkxJL/ISrfM7NpxnyvHbt
MaBGShiALtRqHoMjYamzykM/V6DjPdFqVp/jnB4NMNPxUp9mQVp5DOli1rma
uZqgyIVLiviMFv2+jykyP+8jP1x8M144merjKry+qh5U9K4qjTG2amcBnVOQ
PAZvayOEA35F2QbreLWl5QlD/eaDfPy9dVzIPJBzgEz0nwqYTzLBMBP/HXm7
s+w2s5UTjHX4Hw7iGUqN/KzbkVGBYugrglQoDewEkhRcLHUnhiDCkzfwId8a
YC4b2vUHWMGzVtpmPq0fIDKv03snR5WY40e4uEASciR86HvWJVtOfFdHJRKt
vOiKl8aAqajJPn89n59miaPVswsZac9lY8I5gUM/ZaIsbg45vUqimqSEnYNA
v2rTu7ZDe9tJTjo5HgVav4oBRh1MzITDmIVdfTsROXlt/A7+v0i1FU1eYvc8
os+AJ9b72ikAEQEAAf4JAwgg7AMaHrTxiuA56hknW0ctPkrRi1wjdJCchoTI
kNEvkFKYsBwUQiwvcuwhc0Zcwt+y6hdwOOj0H9N2w473T52NyJQtxRN85iDM
U6Ajfyq1V8YWEb7eyBv9GqRShX//3l9KJdI5vgJFTJYR8IFOfJGkHg7q8eMk
L74hRE40HtNgElSAbnd1PEZoepj85WmGOO4c8sOCL5yOm8w7OPOPgW4bqH8Q
N8/wezmnbuEzzskpR62Tchjk2/Ux2xNCuaq3MP0b3SmzMZTY2WOMiCL+y/XC
4JhHS3RLEL/FVTNL6hsLPkN9YEyRsA1uN3mv2eUOktrlIgPFlg2K3SRAWnF+
1T/THt5iMLiUsavJj+cYzfuilXy1lAoOFz6rpp/HDt2VF+6Z0etI2xW8fby8
ToPioLmi8FODQhR4SVOKHZA6u2cPPQhhg0CKbMn6PVR0h3P+4Gny91waQz3q
qMDh1V+6vjJ3a0sjGnlvFKIH26AmCYNgyjfKZmrtjuLY69zbfX8uevBWz1f+
xlaZ6BaW7+4dr6D12+c3+e0JDraFV60R4/gNsMVoJRH2BHl050ptaq2totOZ
EPkhxuFsmplqS2/y1ExyZ4x8WudrtTdPUPljXr0MQwhRgcO6R9D5j+x96fVE
ACb0wmqZemjFs5YmnvBXOo5A0KGGvJ3xxQ9DWevoIvV0IpFVSTHkR41G7Lmz
XdSF+CLHg8Nrj9mbjG0FJlJh+WoDDFP1uDIkygATu7tG7tWHazRECwBg4POf
SjT03uYKJ1zYtgMQp8++AhzQNOpiwoFzi0BnT/MJPPqLPA4K2FmoJpXpy9Ep
3nqR8PB8ZohdzuXEpcwv4bZSr5z6oa2aioDKbm9phoiNgfRfxRMCNEVsvDAe
oKPc74LkAeUq4WlrdWJCd0f5zke/EIOMeSQ5R9935EL5kO3CcgLpxGFTnXBN
EsMsuPw1zwLlAFClpROd1jDTC6hu0vP5gxXrJA1uySw2I9fdVQUsWUgCUyLJ
6CI+1GQGA3Z3bU9LWoFdIMff3ELWYkQUNiKtTR82DijjbFfexiAIsHtU+mVY
TmZ4US+IVcLjSQuM+csQH27caBpOyKDSlxW0JrqyMU1OS+EqtSCwEI1VQ4/S
UaKlfudtOMNs6YimDTcEZKUVZS8i8wW6GJgW6iuVY0t9EsIyx38pMp1MWUbj
2S71a4dUCOFc7B+FbzVeZEZS2ggyRa2/4TuY+6Knl/zEgqNvJX8wpsVX9ls+
gs+ThNhFTzUMjAAJgWgVDnjq6Apt/ABbgKMcFrzXtEN3L6h6GlaXhBvGLCFW
pROer2iJppt2Jl1htFILIs8ykkkqeSolbHBaiKBHNZojE/zlkhkKJsLBPAQY
AQoAcAWCamFeTAkQhyhfLRHArEhFFAAAAAAAHAAgc2FsdEBub3RhdGlvbnMu
b3BlbnBncGpzLm9yZ3Gv9HH58Du5K58an0CxjqVRCfAQALQnLK54TmJZzUNj
ApsMFiEEnRYhPSfe6PbUUdtahyhfLRHArEgAAOuRC/wL1E9vpurM4FSCIyou
F4mzDQejgagVPBS/XW1gRK1QJmpok5YDPG0tE6sn6mIQlD7OehKBFWkTmF42
27C617YeCDCR/82lvS9S5yU8WMslvDYcTjdeEkhptPZzfMjkfazHM7/Qw9Xd
S2J3b0nUgQZyeSrh6fVFIDwwvllxuxHv+ImnvTsQ28HOVpT2BOV76PnO2GFP
DJy1A3B7LpSdOEJHmwLwY7SEphiilKDsvj/ot8xqROmEAlSNPtZ+zpwbHn3P
wjeK4TTwvC1xZlbESo2G2YHz9x2+VYryhGstQxh4sGhp4Aqv0hRp/WNh14NV
OZRpLQdIW1lORBdeXzeqC7dKyInnbi9zlvQNBNDI20PCIYe5QVlWsySUIBGm
ARaXEJGLa43uwAJ2oGDYuCMH4SBH3yQRaHRohV2v24WJ8jPyguQWyaEw5VyF
mVSEfeWAXk+dI6GjNrFunJEaaeexP642ttznY9zpB/ieTjecH3zGEYmo+Rdu
vk6XAqCvCaoOwuQ=
=P1p2
-----END PGP PRIVATE KEY BLOCK-----
